svgs/1F9D1-1F3FD.svg

<svg xmlns="http://www.w3.org/2000/svg" xmlns:xlink="http://www.w3.org/1999/xlink" preserveAspectRatio="none" viewBox="0 0 72 72"><defs><path id="a" fill="#99674F" d="M106.9 66.05h-3.6v20.3q4.75 0 7.85-2.4 3.6-2.8 3.6-8.05 0-5.3-3.9-8.1l-3.95-1.75z"/><path id="b" fill="#99674F" d="M24.7 66.05h-3.65l-3.9 1.75q-3.95 2.8-3.95 8.1 0 5.25 3.6 8.05 3.1 2.4 7.9 2.4v-20.3z"/><path id="c" fill="#CC9970" d="M106.75 73.8q0-30.45-8.65-45.45Q87.85 10.6 64 10.6q-23.9 0-34.15 17.75-8.65 15-8.65 45.45 0 25.9 14.6 38.45Q47.05 122 64 122q16.8 0 28.1-9.65 14.65-12.55 14.65-38.55z"/><path id="d" fill="#444" d="M40.15 72.35q-1.7 2-1.7 4.85 0 2.9 1.7 4.9 1.65 2 4.05 2 2.35 0 4.05-2 1.65-2.05 1.65-4.9 0-2.85-1.65-4.85-1.7-2.05-4.05-2.05-2.4 0-4.05 2.05z"/><path id="e" fill="#444" d="M87.85 72.35q-1.7-2.05-4.05-2.05-2.4 0-4.05 2.05-1.7 2-1.7 4.85 0 2.85 1.7 4.9 1.65 2 4.05 2 2.35 0 4.05-2 1.65-2 1.65-4.9 0-2.85-1.65-4.85z"/><path id="f" fill="#513F35" d="M63.95 108.75q4.9 0 9-2.15 3.2-1.7 4.5-3.7.7-1.05.35-1.7-.35-.65-1.45-.65H51.6q-1.1 0-1.45.65-.35.65.35 1.7 1.3 2 4.5 3.7 4.1 2.15 8.95 2.15z"/><path id="g" fill="#99674F" d="M58 90q-.65-.15-.9.3-.3.4-.05.9.7 1.15 2.4 2.2 2.2 1.35 4.55 1.35 2.35 0 4.5-1.35 1.7-1.05 2.4-2.2.25-.5 0-.9-.3-.45-.95-.3-3.15.9-5.95.9-2.85 0-6-.9z"/><path id="h" fill="#6D4C41" d="M43 25.6h.2q.2.05.35.25 3.55 7.3 10.65 12.35 2.6 1.9 4.85 3l1.2.5.35-2.4v-.1l.45-3 .45.2q.5.25.9.55.65.5.95.8V25.5q-.397-2.167-1.3-4.3-7.457-13.437-21.95-15-.049-.009-.1-.05-.036.029-.1 0Q38.087 6 36.15 6q-1.934-.007-3.75.2h-.1q-.067-.006-.15 0Q17.782 7.738 10.3 21.15q-.068.146-.15.25-1.212 3.215-1.45 6.4v9.95q.35-.3.95-.75.4-.35.95-.6l.4-.2.5 3.3v.15l.3 2.15h.05l1.2-.2q1.85-.4 3.7-.9l10.9-4.3L31.9 34q.35-.25.7-.45 5.9-3.7 10.3-7.85l.1-.1z"/></defs><use transform="matrix(.56247 0 0 .56247 0 -1.7)" xlink:href="#a"/><use transform="matrix(.56247 0 0 .56247 0 -1.7)" xlink:href="#b"/><use transform="translate(0 -.3) scale(.5625)" xlink:href="#c"/><use transform="translate(0 -.3) scale(.5625)" xlink:href="#d"/><use transform="translate(0 -.3) scale(.5625)" xlink:href="#e"/><use transform="translate(0 -.3) scale(.5625)" xlink:href="#f"/><use transform="translate(0 -.3) scale(.5625)" xlink:href="#g"/><use transform="translate(0 -.3)" xlink:href="#h"/></svg>

<svg xmlns="http://www.w3.org/2000/svg" version="1.1" xmlns:xlink="http://www.w3.org/1999/xlink" preserveAspectRatio="none" x="0px" y="0px" width="72px" height="72px" viewBox="0 0 72 72">
<defs>
<g id="Layer0_0_MEMBER_0_MEMBER_0_FILL">
<path fill="#99674F" stroke="none" d="
M 106.9 66.05
L 103.3 66.05 103.3 86.35
Q 108.05 86.35 111.15 83.95 114.75 81.15 114.75 75.9 114.75 70.6 110.85 67.8
L 106.9 66.05 Z"/>
</g>

<g id="Layer0_0_MEMBER_0_MEMBER_1_FILL">
<path fill="#99674F" stroke="none" d="
M 24.7 66.05
L 21.05 66.05 17.15 67.8
Q 13.2 70.6 13.2 75.9 13.2 81.15 16.8 83.95 19.9 86.35 24.7 86.35
L 24.7 66.05 Z"/>
</g>

<g id="Layer0_0_MEMBER_1_FILL">
<path fill="#CC9970" stroke="none" d="
M 106.75 73.8
Q 106.75 43.35 98.1 28.35 87.85 10.6 64 10.6 40.1 10.6 29.85 28.35 21.2 43.35 21.2 73.8 21.2 99.7 35.8 112.25 47.05 122 64 122 80.8 122 92.1 112.35 106.75 99.8 106.75 73.8 Z"/>
</g>

<g id="Layer0_0_MEMBER_2_FILL">
<path fill="#444444" stroke="none" d="
M 40.15 72.35
Q 38.45 74.35 38.45 77.2 38.45 80.1 40.15 82.1 41.8 84.1 44.2 84.1 46.55 84.1 48.25 82.1 49.9 80.05 49.9 77.2 49.9 74.35 48.25 72.35 46.55 70.3 44.2 70.3 41.8 70.3 40.15 72.35 Z"/>
</g>

<g id="Layer0_0_MEMBER_3_FILL">
<path fill="#444444" stroke="none" d="
M 87.85 72.35
Q 86.15 70.3 83.8 70.3 81.4 70.3 79.75 72.35 78.05 74.35 78.05 77.2 78.05 80.05 79.75 82.1 81.4 84.1 83.8 84.1 86.15 84.1 87.85 82.1 89.5 80.1 89.5 77.2 89.5 74.35 87.85 72.35 Z"/>
</g>

<g id="Layer0_0_MEMBER_4_FILL">
<path fill="#513F35" stroke="none" d="
M 63.95 108.75
Q 68.85 108.75 72.95 106.6 76.15 104.9 77.45 102.9 78.15 101.85 77.8 101.2 77.45 100.55 76.35 100.55
L 51.6 100.55
Q 50.5 100.55 50.15 101.2 49.8 101.85 50.5 102.9 51.8 104.9 55 106.6 59.1 108.75 63.95 108.75 Z"/>
</g>

<g id="Layer0_0_MEMBER_5_FILL">
<path fill="#99674F" stroke="none" d="
M 58 90
Q 57.35 89.85 57.1 90.3 56.8 90.7 57.05 91.2 57.75 92.35 59.45 93.4 61.65 94.75 64 94.75 66.35 94.75 68.5 93.4 70.2 92.35 70.9 91.2 71.15 90.7 70.9 90.3 70.6 89.85 69.95 90 66.8 90.9 64 90.9 61.15 90.9 58 90 Z"/>
</g>

<g id="Layer0_0_MEMBER_6_FILL">
<path fill="#6D4C41" stroke="none" d="
M 43 25.6
Q 43.1 25.6 43.2 25.6 43.4 25.65 43.55 25.85 47.1 33.15 54.2 38.2 56.8 40.1 59.05 41.2 59.65 41.45 60.25 41.7
L 60.6 39.3 60.6 39.2 61.05 36.2 61.5 36.4
Q 62 36.65 62.4 36.95 63.05 37.45 63.35 37.75
L 63.35 25.5
Q 62.9525390625 23.333203125 62.05 21.2 54.5927734375 7.76328125 40.1 6.2 40.0513671875 6.191015625 40 6.15 39.963671875 6.17890625 39.9 6.15 38.0869140625 5.9994140625 36.15 6 34.2158203125 5.9927734375 32.4 6.2
L 32.3 6.2
Q 32.233203125 6.19375 32.15 6.2 17.781640625 7.737890625 10.3 21.15 10.232421875 21.2962890625 10.15 21.4 8.9384765625 24.6154296875 8.7 27.8
L 8.7 37.75
Q 9.05 37.45 9.65 37 10.05 36.65 10.6 36.4
L 11 36.2 11.5 39.5 11.5 39.65 11.8 41.8 11.85 41.8
Q 12.45 41.7 13.05 41.6 14.9 41.2 16.75 40.7 22.2 38.55 27.65 36.4 29.775 35.2 31.9 34 32.25 33.75 32.6 33.55 38.5 29.85 42.9 25.7 42.95 25.65 43 25.6 Z"/>
</g>
</defs>

<g id="Layer_1">
<g transform="matrix( 0.562469482421875, 0, 0, 0.562469482421875, 0,-1.7) ">
<use xlink:href="#Layer0_0_MEMBER_0_MEMBER_0_FILL"/>
</g>

<g transform="matrix( 0.562469482421875, 0, 0, 0.562469482421875, 0,-1.7) ">
<use xlink:href="#Layer0_0_MEMBER_0_MEMBER_1_FILL"/>
</g>

<g transform="matrix( 0.5625, 0, 0, 0.5625, 0,-0.3) ">
<use xlink:href="#Layer0_0_MEMBER_1_FILL"/>
</g>

<g transform="matrix( 0.5625, 0, 0, 0.5625, 0,-0.3) ">
<use xlink:href="#Layer0_0_MEMBER_2_FILL"/>
</g>

<g transform="matrix( 0.5625, 0, 0, 0.5625, 0,-0.3) ">
<use xlink:href="#Layer0_0_MEMBER_3_FILL"/>
</g>

<g transform="matrix( 0.5625, 0, 0, 0.5625, 0,-0.3) ">
<use xlink:href="#Layer0_0_MEMBER_4_FILL"/>
</g>

<g transform="matrix( 0.5625, 0, 0, 0.5625, 0,-0.3) ">
<use xlink:href="#Layer0_0_MEMBER_5_FILL"/>
</g>

<g transform="matrix( 1, 0, 0, 1, 0,-0.3) ">
<use xlink:href="#Layer0_0_MEMBER_6_FILL"/>
</g>
</g>
</svg>
